svgs/boat_hearables.svg

<svg width="192" height="192" viewBox="0 0 192 192" fill="none" xmlns="http://www.w3.org/2000/svg">
<path d="M146 81.0065C146.566 35.6263 138.42 19.6292 98 20.0065" stroke="black" stroke-width="8" stroke-linejoin="bevel"/>
<path d="M53.0268 81.0065C52.4607 35.6263 60.6067 19.6292 101.027 20.0065" stroke="black" stroke-width="8" stroke-linejoin="bevel"/>
<path d="M146.261 81C196.968 130.412 149.707 199.788 99 160.359" stroke="black" stroke-width="8" stroke-linecap="round" stroke-linejoin="bevel"/>
<path d="M53.1089 81C3.87178 130.412 49.7628 199.788 99 160.359" stroke="black" stroke-width="8" stroke-linecap="round" stroke-linejoin="bevel"/>
<path d="M64.0906 110.279C63.2229 110.423 61.608 110.937 60.4751 111.41C56.8114 112.931 53.461 116.385 52.0871 120.023C50.5686 124.052 50.6409 128.657 52.3041 132.481C55.2206 139.223 62.8373 143.17 70.1165 141.69C74.889 140.745 79.1312 137.538 81.3728 133.2C83.5662 128.986 83.5421 122.942 81.3005 118.625C79.6856 115.501 76.7209 112.787 73.491 111.41C70.1888 110.033 67.3205 109.683 64.0906 110.279ZM67.0072 118.482C68.6944 122.243 70.4057 126.437 70.3093 126.519C69.996 126.766 61.6562 129.007 61.5598 128.863C61.4875 128.76 61.9695 127.403 62.6203 125.841C63.2711 124.279 64.3317 121.73 64.9584 120.167C65.3846 119.157 65.7901 118.271 66.0531 117.791C66.2068 117.511 66.4718 117.5 66.6405 117.772C66.7599 117.964 66.8918 118.216 67.0072 118.482ZM73.9731 129.479C73.9731 129.582 73.5151 130.466 72.9607 131.432V131.432C72.3341 132.514 71.1789 133.18 69.929 133.18H66.26H62.6697C61.3811 133.18 60.1849 132.51 59.511 131.412V131.412C58.9084 130.446 58.4022 129.562 58.354 129.459C58.3058 129.356 61.608 129.274 66.1153 129.274C71.1047 129.274 73.9731 129.356 73.9731 129.479Z" stroke="black" stroke-width="8" stroke-linejoin="bevel"/>
<path d="M127.322 96.4459C125.033 97.1407 122.894 98.3079 121.158 99.8919C120.403 100.587 118.944 101.754 117.887 102.504V102.504C116.798 103.274 116.426 104.718 117.007 105.918L117.157 106.228L117.373 106.679C117.809 107.587 119.029 107.759 119.699 107.006V107.006C120.579 106.061 121.787 105.061 122.844 104.505C124.328 103.699 124.882 103.56 126.794 103.449C128.882 103.366 129.109 103.421 130.669 104.255C132.682 105.367 135.349 108.173 136.581 110.508C138.871 114.899 139.878 119.262 139.878 125.098C139.903 129.711 139.55 131.879 138.192 135.547C137.009 138.771 135.575 141.105 133.487 143.273C131.474 145.385 130.417 146.052 128.304 146.497C125.486 147.108 122.819 146.024 120.026 143.078L119.783 142.826C118.916 141.927 118.639 140.611 119.07 139.438V139.438L119.178 139.131C119.423 138.44 120.338 138.298 120.781 138.882V138.882C122.416 141.05 123.221 141.8 124.68 142.55C125.762 143.106 126.266 143.217 127.347 143.078C129.109 142.884 130.065 142.3 131.902 140.272C134.845 137.02 136.506 132.101 136.707 126.015C136.858 122.097 136.657 120.179 135.726 117.039C134.418 112.509 131.977 108.84 129.31 107.423C128.203 106.812 127.725 106.701 126.492 106.812C124.63 106.951 123.649 107.673 121.334 110.508V110.508C120.266 111.828 119.843 113.556 120.179 115.22L120.277 115.705C121.535 121.93 121.636 128.461 120.554 133.657C120.001 136.214 118.541 140.466 117.157 143.356C116.503 144.746 116.126 145.83 116.302 145.746C116.503 145.663 117.283 146.246 118.164 147.136C123.02 152.11 126.618 154 131.247 154C133.864 154 135.827 153.472 138.242 152.138C148.08 146.719 153.339 130.378 149.992 115.76C148.709 110.23 146.294 105.283 143.073 101.754C139.425 97.7521 136.38 96.2236 131.751 96.0291C129.687 95.9457 128.706 96.0291 127.322 96.4459Z" stroke="black" stroke-width="8" stroke-linejoin="bevel"/>
<path d="M96.6204 34.2707C93.2708 35.9899 88.9643 39.7647 87.2895 42.3062C84.6577 46.4174 84.3706 47.9123 84.0835 60.0964C83.9399 66.2631 83.9878 72.6541 84.1792 74.336V74.336C84.3878 76.2452 85.5558 77.9163 87.2771 78.7684L87.9115 79.0825C89.8256 80.0168 93.1273 82.0351 95.2327 83.6048C97.9124 85.5109 99.2522 86.2584 99.3957 85.922C99.5393 85.6604 102.937 83.7169 107.004 81.6613C111.024 79.5684 114.708 77.6249 115.187 77.2885C115.904 76.7653 116 75.7562 116 65.5904C115.952 53.7054 115.569 48.5103 114.373 45.5204C113.464 43.2406 110.641 39.4657 108.344 37.597C105.903 35.5788 101.214 33 100.018 33C99.4436 33 97.9124 33.5606 96.6204 34.2707Z" stroke="black" stroke-width="8" stroke-linejoin="bevel"/>
<path d="M73.1003 97.4402C70.8465 97.9963 68.2867 99.2476 66.2834 100.749C63.5845 102.807 63.5288 103.28 66.1165 102.223C68.7597 101.166 70.5961 100.805 73.4342 100.805C76.8009 100.805 78.4703 101.194 81.9205 102.862C86.5392 105.059 90.1007 108.897 92.6327 114.347C94.4134 118.212 94.9699 120.937 94.9699 125.942C94.9699 129.779 94.8864 130.586 94.1908 133.311C93.217 137.148 91.9649 139.762 89.8225 142.626C85.148 148.799 78.2199 152.108 71.6813 151.274C69.6779 150.996 66.7286 150.245 64.2801 149.355C63.3062 149.022 65.0035 150.523 67.3407 152.08C70.9022 154.444 72.7664 155 77.0513 155C80.1119 154.972 80.7797 154.889 82.5604 154.249C87.847 152.331 91.8258 148.66 94.803 142.96C98.3922 136.036 99.6721 128.973 98.6705 121.493C97.4462 112.456 93.69 105.226 87.9304 100.805C83.6455 97.5236 78.0529 96.2445 73.1003 97.4402Z" stroke="black" stroke-width="8" stroke-linejoin="bevel"/>
</svg>

<svg width="192" height="192" viewBox="0 0 192 192" fill="none" xmlns="http://www.w3.org/2000/svg"><path d="M146 81.007c.566-45.38-7.58-61.378-48-61" stroke="#000" stroke-width="8" stroke-linejoin="bevel"/><path d="M53.027 81.007c-.566-45.38 7.58-61.378 48-61" stroke="#000" stroke-width="8" stroke-linejoin="bevel"/><path d="M146.261 81c50.707 49.412 3.446 118.788-47.261 79.359M53.109 81C3.872 130.412 49.763 199.788 99 160.359" stroke="#000" stroke-width="8" stroke-linecap="round" stroke-linejoin="bevel"/><path d="M64.09 110.279c-.867.144-2.482.658-3.615 1.131-3.664 1.521-7.014 4.975-8.388 8.613-1.518 4.029-1.446 8.634.217 12.458 2.917 6.742 10.533 10.689 17.813 9.209 4.772-.945 9.014-4.152 11.256-8.49 2.193-4.214 2.17-10.258-.073-14.575-1.614-3.124-4.58-5.838-7.809-7.215-3.302-1.377-6.17-1.727-9.4-1.131Zm2.917 8.203c1.687 3.761 3.399 7.955 3.302 8.037-.313.247-8.653 2.488-8.75 2.344-.072-.103.41-1.46 1.061-3.022.651-1.562 1.712-4.111 2.338-5.674.427-1.01.832-1.896 1.095-2.376.154-.28.419-.291.588-.019.119.192.25.444.366.71Zm6.966 10.997c0 .103-.458.987-1.012 1.953a3.503 3.503 0 0 1-3.032 1.748H62.67a3.707 3.707 0 0 1-3.159-1.768 40.978 40.978 0 0 1-1.157-1.953c-.048-.103 3.254-.185 7.761-.185 4.99 0 7.858.082 7.858.205ZM127.322 96.446c-2.289.695-4.428 1.862-6.164 3.446-.755.695-2.214 1.862-3.271 2.612a2.726 2.726 0 0 0-.88 3.414l.15.31.216.451a1.41 1.41 0 0 0 2.326.327c.88-.945 2.088-1.945 3.145-2.501 1.484-.806 2.038-.945 3.95-1.056 2.088-.083 2.315-.028 3.875.806 2.013 1.112 4.68 3.918 5.912 6.253 2.29 4.391 3.297 8.754 3.297 14.59.025 4.613-.328 6.781-1.686 10.449-1.183 3.224-2.617 5.558-4.705 7.726-2.013 2.112-3.07 2.779-5.183 3.224-2.818.611-5.485-.473-8.278-3.419l-.243-.252a3.26 3.26 0 0 1-.713-3.388l.108-.307a.922.922 0 0 1 1.603-.249c1.635 2.168 2.44 2.918 3.899 3.668 1.082.556 1.586.667 2.667.528 1.762-.194 2.718-.778 4.555-2.806 2.943-3.252 4.604-8.171 4.805-14.257.151-3.918-.05-5.836-.981-8.976-1.308-4.53-3.749-8.199-6.416-9.616-1.107-.611-1.585-.722-2.818-.611-1.862.139-2.843.861-5.158 3.696a5.699 5.699 0 0 0-1.155 4.712l.098.485c1.258 6.225 1.359 12.756.277 17.952-.553 2.557-2.013 6.809-3.397 9.699-.654 1.39-1.031 2.474-.855 2.39.201-.083.981.5 1.862 1.39 4.856 4.974 8.454 6.864 13.083 6.864 2.617 0 4.58-.528 6.995-1.862 9.838-5.419 15.097-21.76 11.75-36.378-1.283-5.53-3.698-10.477-6.919-14.006-3.648-4.002-6.693-5.53-11.322-5.725-2.064-.083-3.045 0-4.429.417ZM96.62 34.27c-3.35 1.72-7.656 5.495-9.33 8.036-2.632 4.111-2.92 5.606-3.207 17.79-.143 6.167-.095 12.558.096 14.24a5.628 5.628 0 0 0 3.098 4.432l.635.314c1.914.935 5.215 2.953 7.32 4.523 2.68 1.906 4.02 2.653 4.164 2.317.143-.262 3.541-2.205 7.608-4.26 4.02-2.094 7.704-4.037 8.183-4.374.717-.523.813-1.532.813-11.698-.048-11.885-.431-17.08-1.627-20.07-.909-2.28-3.732-6.054-6.029-7.923-2.441-2.018-7.13-4.597-8.326-4.597-.574 0-2.106.56-3.398 1.27Z" stroke="#000" stroke-width="8" stroke-linejoin="bevel"/><path d="M73.1 97.44c-2.253.556-4.813 1.808-6.817 3.309-2.699 2.058-2.754 2.531-.166 1.474 2.643-1.057 4.48-1.418 7.317-1.418 3.367 0 5.036.389 8.487 2.057 4.618 2.197 8.18 6.035 10.712 11.485 1.78 3.865 2.337 6.59 2.337 11.595 0 3.837-.084 4.644-.78 7.369-.973 3.837-2.225 6.451-4.367 9.315-4.675 6.173-11.603 9.482-18.142 8.648-2.003-.278-4.952-1.029-7.4-1.919-.975-.333.722 1.168 3.06 2.725 3.561 2.364 5.425 2.92 9.71 2.92 3.06-.028 3.729-.111 5.51-.751 5.286-1.918 9.265-5.589 12.242-11.289 3.59-6.924 4.87-13.987 3.868-21.467-1.225-9.037-4.981-16.267-10.74-20.688-4.285-3.281-9.878-4.56-14.83-3.365Z" stroke="#000" stroke-width="8" stroke-linejoin="bevel"/></svg>
